assets/svg/icon-ui-shovel-dark-gray.svg

<?xml version="1.0" encoding="UTF-8" standalone="no"?>
<svg width="33px" height="32px" viewBox="0 0 33 32" version="1.1" xmlns="http://www.w3.org/2000/svg" xmlns:xlink="http://www.w3.org/1999/xlink">
    <!-- Generator: Sketch 3.8.3 (29802) - http://www.bohemiancoding.com/sketch -->
    <title>dark gray/icon-ui-shovel-dark-gray</title>
    <desc>Created with Sketch.</desc>
    <defs></defs>
    <g id="gray" stroke="none" stroke-width="1" fill="none" fill-rule="evenodd">
        <g id="icons,-utility-(gray)" transform="translate(-804.000000, -897.000000)" fill="#242F36">
            <g id="dark-gray/icon-ui-shovel-dark-gray" transform="translate(804.000000, 897.000000)">
                <g id="Path-1-+-Path-2-+-Path-3">
                    <g id="Page-1">
                        <g id="Path-1-+-Path-2-+-Path-3">
                            <path d="M15.1348599,17.7590126 C15.1208732,17.7239641 15.0956499,17.6629635 15.0598251,17.5796453 C15.0012368,17.4433861 14.9333605,17.2922131 14.8567992,17.1297276 C14.6378228,16.6649955 14.3918281,16.1998762 14.122528,15.7622957 C13.0558971,14.0291481 11.9057331,13.104265 10.5990029,13.7074544 L10.8905547,13.6434109 C8.89637431,14.4933913 4.27131877,17.5585484 2.99492878,18.680804 C2.41888854,19.1872827 2.12966556,19.4671553 1.74176984,19.9459865 C-0.185052667,22.324519 -0.588113818,25.5261037 1.38288704,29.8152456 L1.44678785,29.9543017 L1.56314652,30.0537027 C1.8698515,30.3157097 2.43379267,30.6825515 3.24910488,31.0416149 C5.02079042,31.8218648 7.16475894,32.1766902 9.65452549,31.876355 C10.1524539,31.816291 10.6652073,31.7219861 11.1916349,31.5954697 C12.8756679,31.1907462 14.6562232,30.4705348 16.4684064,29.5252938 C17.474011,29.0007669 18.4268874,28.4393972 19.2979571,27.8777473 C19.6033533,27.6808334 19.8770508,27.4977049 20.1153542,27.3329337 C20.2598888,27.2329975 20.3615318,27.1606233 20.4165676,27.1203862 C20.6642475,26.9595353 21.060929,26.6545228 21.4613691,26.2545822 C22.2938856,25.4231043 22.762215,24.5485689 22.5988816,23.6191269 C22.4454071,22.7457864 21.7419947,22.0459432 20.5165431,21.5283578 C19.44956,21.0777036 19.2169506,20.3281606 19.6117506,19.1307557 C19.8079881,18.5355791 20.1548826,17.8810361 20.6095586,17.2061376 C20.8784182,16.8070557 21.1676402,16.42624 21.4566719,16.0779807 C21.628869,15.8704975 21.7609559,15.7218894 21.8325147,15.645665 L32.3747954,4.98112838 L32.537904,4.81612322 L32.5693097,4.58624328 C32.5753055,4.54235582 32.5831251,4.4709502 32.5905824,4.37583079 C32.6382721,3.7675339 32.608605,3.09457836 32.4402046,2.44065845 C31.9911611,0.696967026 30.682503,-0.271726426 28.5148233,0.130302573 C26.9321062,0.42384139 24.6796202,2.63138172 21.7258127,6.39956652 C21.0939428,7.20564563 20.4396268,8.07313371 19.767314,8.99331145 C18.3835579,10.887224 16.987527,12.9146371 15.6484837,14.9418316 C15.1799132,15.6512065 14.7518529,16.3100076 14.3730244,16.9014528 C14.2403048,17.1086609 14.123175,17.2927202 14.0227266,17.4515312 C13.9622425,17.5471578 13.9209089,17.612883 13.8989746,17.6479479 L15.1348599,17.7590126 L15.1348599,17.7590126 Z M13.8426513,18.2746915 L14.3510889,19.5487546 L15.0785367,18.3857562 C15.0986919,18.3535308 15.139349,18.2888813 15.1985683,18.1952543 C15.2976257,18.0386425 15.4133376,17.8568114 15.5446071,17.6518672 C15.9200332,17.0657341 16.3445564,16.4123766 16.8093911,15.7086575 C18.1372198,13.6984408 19.5212593,11.6884426 20.8907134,9.81410473 C21.554177,8.90603859 22.1991355,8.05095663 22.8207954,7.25790243 C25.5222584,3.81163461 27.6759531,1.70091434 28.7685351,1.49827849 C30.1723694,1.23791618 30.8165707,1.71476621 31.0928603,2.78763275 C31.2169188,3.26936747 31.2402546,3.79870713 31.2035341,4.26708786 C31.1982427,4.33458209 31.1933136,4.37959213 31.1908103,4.3979158 L31.3853245,4.0030307 L20.8306019,14.6804827 C20.728129,14.7892991 20.5774338,14.958843 20.386054,15.1894398 C20.0691243,15.5713138 19.7523847,15.9883617 19.4556802,16.4287751 C18.9356188,17.2007285 18.5320696,17.962171 18.2904153,18.6950943 C17.6885239,20.5205953 18.161253,22.0438827 19.9752115,22.8100316 C20.8062506,23.1610318 21.1692165,23.522156 21.2285752,23.8599346 C21.2920016,24.2208595 21.0197188,24.7293069 20.4781826,25.2701677 C20.2903109,25.4578051 20.0866895,25.6330919 19.8831424,25.7896014 C19.7625433,25.8823312 19.6714151,25.9464163 19.6252436,25.976612 C19.5500287,26.0304318 19.4583163,26.0957349 19.3240854,26.1885467 C19.0977796,26.3450224 18.8364813,26.5198547 18.5440069,26.7084369 C17.7068744,27.2482047 16.7901897,27.7882528 15.8249679,28.2917158 C14.1057252,29.1884787 12.4260667,29.8678787 10.8665201,30.2426844 C10.3906813,30.3570427 9.9305653,30.4416666 9.48790331,30.495064 C7.25427654,30.7645016 5.3599978,30.4509997 3.80986331,29.7683208 C3.40797039,29.5913272 3.06324506,29.4030184 2.77682145,29.2167008 C2.61261805,29.109887 2.50887501,29.0317526 2.46683848,28.9958423 L2.64709796,29.2342994 C0.897119068,25.4261287 1.22910021,22.7891448 2.82285525,20.8217616 C3.14750031,20.4210092 3.39334516,20.1831123 3.91361675,19.7256677 C5.09204099,18.6895477 9.60506389,15.6986378 11.1821066,14.9706717 L10.8905547,15.0347152 C11.5617881,14.7954099 12.2190957,15.3239715 12.937636,16.4915136 C13.1772053,16.880785 13.3997567,17.3015786 13.5982122,17.7227593 C13.7170142,17.974892 13.800436,18.1689067 13.8426513,18.2746915 L13.8426513,18.2746915 Z" id="Path-1"></path>
                            <path d="M21.6474056,8.37285866 C21.7421215,8.39490288 21.9215047,8.44402509 22.1562576,8.52117387 C22.5491373,8.65028917 22.9414344,8.80930933 23.3026661,8.99730648 C24.3597827,9.54746562 24.8635025,10.1767408 24.7214445,10.8793221 L26.0851522,11.1550561 C26.3826892,9.68351628 25.4884969,8.56644076 23.9449694,7.76313705 C23.510511,7.53703024 23.050283,7.35047385 22.5906375,7.19941677 C22.3138753,7.10846213 22.0954135,7.04863862 21.9627893,7.0177716 L21.6474056,8.37285866 L21.6474056,8.37285866 Z" id="Path-2"></path>
                            <path d="M13.8734516,17.6923016 C13.8458607,17.7446103 13.7887291,17.8487127 13.7036523,17.9971395 C13.5599099,18.2479157 13.3913503,18.5282275 13.1996096,18.830582 C12.6514569,19.69496 12.0295676,20.5592782 11.3482177,21.3631852 C10.0975823,22.8387771 8.79458476,23.9346798 7.49583001,24.4967184 L8.04839789,25.7735882 C9.57584346,25.1125832 11.032791,23.8871989 12.4095902,22.2627496 C13.1358488,21.4058561 13.7942842,20.4907452 14.3745716,19.5756941 C14.5777849,19.2552485 14.7569826,18.9572458 14.9107259,18.6890219 C15.0041405,18.5260486 15.0690783,18.4077223 15.1040596,18.3414024 L13.8734516,17.6923016 L13.8734516,17.6923016 Z" id="Path-3"></path>
                            <path d="M3.15531246,24.2186467 C3.12171989,24.3026281 3.07492033,24.4445868 3.0290364,24.6327109 C2.8724616,25.2746676 2.84965645,25.9519807 3.05071124,26.5982282 C3.41233413,27.7605875 4.43077168,28.5693467 6.20368731,28.8648327 L6.31805182,28.1786456 C4.79306084,27.9244804 3.99459615,27.2904055 3.71495943,26.3915732 C3.55690883,25.8835534 3.57563287,25.3274494 3.70487664,24.79755 C3.74247098,24.6434132 3.77914968,24.5321545 3.80120928,24.4770055 L3.15531246,24.2186467 L3.15531246,24.2186467 Z" id="Path-24"></path>
                            <path d="M17.1453542,22.5068197 L19.2323107,24.5937763 L19.2609756,24.0762195 C19.2346626,24.0972713 19.1837428,24.1377374 19.1120419,24.1942902 C18.9922524,24.288772 18.8575428,24.3941089 18.7109832,24.5075744 C18.2923451,24.8316813 17.8629635,25.1557429 17.4475925,25.4578309 C17.3393345,25.536564 17.233249,25.6129006 17.1296128,25.6865975 C16.1922136,26.3531925 15.4675737,26.7826087 15.3043478,26.7826087 L15.3043478,27.4782609 C15.690773,27.4782609 16.4089673,27.0526643 17.5327597,26.253523 C17.6384633,26.178356 17.7465484,26.1005804 17.8567554,26.0204299 C18.2783408,25.7138223 18.7130897,25.38571 19.1368428,25.057643 C19.2851203,24.9428476 19.4214704,24.836228 19.5428494,24.7404924 C19.6158496,24.6829148 19.6675113,24.6418591 19.6955461,24.6194326 L19.9990026,24.3766674 L19.7242111,24.1018759 L17.6372545,22.0149194 L17.1453542,22.5068197 L17.1453542,22.5068197 Z" id="Path-25"></path>
                            <path d="M25.0434783,5.2173913 C25.0966157,5.2173913 25.1981733,5.22222738 25.3311543,5.23700304 C25.5530811,5.26166158 25.7743378,5.30591292 25.9769643,5.37345506 C26.5022398,5.54854691 26.7826087,5.82891579 26.7826087,6.26086957 L27.4782609,6.26086957 C27.4782609,5.47543203 26.9760211,4.97319222 26.1969488,4.71350146 C25.9430535,4.62886969 25.6751797,4.57529494 25.4079762,4.54560566 C25.2474789,4.52777262 25.1207756,4.52173913 25.0434783,4.52173913 L25.0434783,5.2173913 L25.0434783,5.2173913 Z" id="Path-26"></path>
                            <path d="M25.7391304,3.82608696 C25.7922679,3.82608696 25.8938255,3.83092303 26.0268064,3.84569869 C26.2487333,3.87035723 26.46999,3.91460857 26.6726164,3.98215071 C27.197892,4.15724257 27.4782609,4.43761145 27.4782609,4.86956522 L28.173913,4.86956522 C28.173913,4.08412768 27.6716732,3.58188787 26.892601,3.32219711 C26.6387056,3.23756534 26.3708319,3.18399059 26.1036284,3.15430131 C25.943131,3.13646827 25.8164277,3.13043478 25.7391304,3.13043478 L25.7391304,3.82608696 L25.7391304,3.82608696 Z" id="Path-26"></path>
                            <path d="M23.6521739,6.60869565 C23.7053114,6.60869565 23.806869,6.61353173 23.9398499,6.62830739 C24.1617768,6.65296593 24.3830335,6.69721727 24.5856599,6.76475941 C25.1109355,6.93985126 25.3913043,7.22022014 25.3913043,7.65217391 L26.0869565,7.65217391 C26.0869565,6.86673638 25.5847167,6.36449656 24.8056444,6.10480581 C24.5517491,6.02017404 24.2838754,5.96659929 24.0166718,5.93691001 C23.8561745,5.91907697 23.7294712,5.91304348 23.6521739,5.91304348 L23.6521739,6.60869565 L23.6521739,6.60869565 Z" id="Path-26"></path>
                            <path d="M27.1304348,2.43478261 C27.1835723,2.43478261 27.2851298,2.43961868 27.4181108,2.45439434 C27.6400377,2.47905289 27.8612944,2.52330422 28.0639208,2.59084636 C28.5891963,2.76593822 28.8695652,3.0463071 28.8695652,3.47826087 L29.5652174,3.47826087 C29.5652174,2.69282334 29.0629776,2.19058352 28.2839053,1.93089277 C28.03001,1.84626099 27.7621362,1.79268624 27.4949327,1.76299696 C27.3344354,1.74516392 27.2077321,1.73913043 27.1304348,1.73913043 L27.1304348,2.43478261 L27.1304348,2.43478261 Z" id="Path-26"></path>
                        </g>
                    </g>
                </g>
            </g>
        </g>
    </g>
</svg>

<svg width="33" height="32" viewBox="0 0 33 32" xmlns="http://www.w3.org/2000/svg"><title>dark gray/icon-ui-shovel-dark-gray</title><g fill="#242F36" fill-rule="evenodd"><path d="M15.135 17.759a14.484 14.484 0 0 0-.278-.63c-.22-.464-.465-.93-.734-1.367-1.067-1.733-2.217-2.658-3.524-2.055l.292-.064c-1.995.85-6.62 3.916-7.896 5.038-.576.506-.865.786-1.253 1.265-1.927 2.379-2.33 5.58-.36 9.87l.065.138.116.1c.307.262.87.629 1.686.988 1.772.78 3.916 1.135 6.406.834.497-.06 1.01-.154 1.537-.28 1.684-.405 3.464-1.125 5.276-2.07a35.817 35.817 0 0 0 3.647-2.193c.145-.1.247-.172.302-.213.247-.16.644-.465 1.044-.865.833-.832 1.301-1.706 1.138-2.636-.154-.873-.857-1.573-2.082-2.09-1.067-.451-1.3-1.2-.905-2.398.196-.595.543-1.25.998-1.925a14.228 14.228 0 0 1 1.223-1.56L32.375 4.98l.163-.165.031-.23a5.963 5.963 0 0 0-.13-2.146C31.992.698 30.684-.271 28.516.13c-1.583.294-3.835 2.501-6.79 6.27a96.46 96.46 0 0 0-1.958 2.593 154.935 154.935 0 0 0-4.119 5.949 167.072 167.072 0 0 0-1.749 2.706l1.236.111zm-1.292.516l.508 1.274.728-1.163c.02-.032.06-.097.12-.19.099-.157.214-.34.346-.544.375-.586.8-1.24 1.264-1.943 1.328-2.01 2.712-4.02 4.082-5.895a95.083 95.083 0 0 1 1.93-2.556c2.701-3.446 4.855-5.557 5.948-5.76 1.403-.26 2.048.217 2.324 1.29a4.634 4.634 0 0 1 .098 1.61l.194-.395L20.831 14.68a15.604 15.604 0 0 0-1.375 1.748c-.52.773-.924 1.534-1.166 2.267-.601 1.826-.129 3.349 1.685 4.115.831.351 1.194.712 1.254 1.05.063.36-.21.87-.75 1.41a6.166 6.166 0 0 1-.854.707l-.3.212a34.438 34.438 0 0 1-3.5 2.103c-1.72.896-3.399 1.576-4.958 1.95a12.13 12.13 0 0 1-1.38.253c-2.233.27-4.127-.044-5.677-.727a7.284 7.284 0 0 1-1.033-.551 3.395 3.395 0 0 1-.31-.221l.18.238c-1.75-3.808-1.418-6.445.176-8.412.325-.401.57-.639 1.09-1.096 1.179-1.036 5.692-4.027 7.27-4.755l-.292.064c.67-.24 1.328.289 2.047 1.457a12.691 12.691 0 0 1 .905 1.783z"/><path d="M21.647 8.373a7.734 7.734 0 0 1 1.655.624c1.058.55 1.562 1.18 1.42 1.882l1.363.276c.298-1.471-.597-2.589-2.14-3.392a9.099 9.099 0 0 0-1.354-.564 7.81 7.81 0 0 0-.628-.181l-.316 1.355zM13.873 17.692a21.932 21.932 0 0 1-.674 1.138 22.932 22.932 0 0 1-1.85 2.533c-1.251 1.476-2.554 2.572-3.853 3.134l.552 1.277c1.528-.661 2.985-1.887 4.362-3.511a24.303 24.303 0 0 0 2.694-3.922l-1.23-.649zM3.155 24.219a3.25 3.25 0 0 0-.126.414c-.157.642-.18 1.319.022 1.965.361 1.163 1.38 1.971 3.153 2.267l.114-.686c-1.525-.255-2.323-.889-2.603-1.787-.158-.508-.14-1.065-.01-1.594a2.61 2.61 0 0 1 .096-.321l-.646-.258zM17.145 22.507l2.087 2.087.029-.518a30.272 30.272 0 0 1-.55.432 53.287 53.287 0 0 1-1.581 1.179c-.938.666-1.662 1.096-1.826 1.096v.695c.387 0 1.105-.425 2.229-1.224.105-.076.214-.153.324-.234a53.966 53.966 0 0 0 1.839-1.4l.303-.243-.275-.275-2.087-2.087-.492.492zM25.043 5.217c.054 0 .155.005.288.02.222.025.443.069.646.136.525.176.806.456.806.888h.695c0-.786-.502-1.288-1.281-1.547a3.849 3.849 0 0 0-.789-.168 3.494 3.494 0 0 0-.365-.024v.695zM25.74 3.826c.052 0 .154.005.287.02.222.024.443.069.646.136.525.175.805.456.805.888h.696c0-.786-.502-1.288-1.281-1.548a3.849 3.849 0 0 0-.79-.168 3.494 3.494 0 0 0-.364-.024v.696zM23.652 6.609c.053 0 .155.005.288.02.222.024.443.068.646.136.525.175.805.455.805.887h.696c0-.785-.502-1.288-1.281-1.547a3.849 3.849 0 0 0-.79-.168 3.494 3.494 0 0 0-.364-.024v.696zM27.13 2.435c.054 0 .155.005.288.02.222.024.443.068.646.136.525.175.806.455.806.887h.695c0-.785-.502-1.287-1.281-1.547a3.849 3.849 0 0 0-.79-.168 3.494 3.494 0 0 0-.364-.024v.696z"/></g></svg>
